smiling-axolotl/src/assets/logo.svg

<svg width="162" height="50" viewBox="0 0 162 50" fill="none" xmlns="http://www.w3.org/2000/svg">
<path d="M9.4297 7.32484C9.4297 5.15924 10.3272 3.39703 12.1221 2.03822C13.9385 0.679406 16.3104 0 19.2379 0C22.1868 0 24.5908 0.711253 26.4498 2.13376C28.3303 3.55626 29.2705 5.04246 29.2705 6.59236C29.2705 6.78344 29.1957 6.95329 29.0461 7.10191C28.9179 7.2293 28.7683 7.29299 28.5974 7.29299H22.1868C21.6953 7.29299 21.2466 7.11253 20.8406 6.75159C20.4346 6.39066 19.8897 6.21019 19.2059 6.21019C18.1802 6.21019 17.6673 6.50743 17.6673 7.10191C17.6673 7.42038 17.9131 7.68577 18.4045 7.89809C18.9174 8.1104 19.8576 8.30149 21.2252 8.47134C24.4091 8.87473 26.6742 9.61783 28.0204 10.7006C29.388 11.7622 30.0718 13.3864 30.0718 15.5732C30.0718 17.7389 29.0675 19.5117 27.0588 20.8917C25.0716 22.2505 22.4646 22.9299 19.2379 22.9299C16.0112 22.9299 13.4791 22.2718 11.6414 20.9554C9.80365 19.6391 8.8848 18.0361 8.8848 16.1465C8.8848 15.9554 8.9489 15.7962 9.07712 15.6688C9.2267 15.5202 9.39764 15.4459 9.58996 15.4459H15.68C16.1288 15.4459 16.6203 15.6582 17.1545 16.0828C17.7101 16.5074 18.4686 16.7197 19.4302 16.7197C21.0329 16.7197 21.8342 16.4225 21.8342 15.828C21.8342 15.4459 21.5457 15.1592 20.9688 14.9682C20.3918 14.7558 19.302 14.5435 17.6994 14.3312C12.1863 13.6093 9.4297 11.2739 9.4297 7.32484Z" fill="white"/>
<path d="M51.0891 0.318471H56.1534C56.3885 0.318471 56.5915 0.403397 56.7625 0.573249C56.9334 0.7431 57.0189 0.944799 57.0189 1.17834V21.7516C57.0189 21.9851 56.9334 22.1868 56.7625 22.3567C56.5915 22.5265 56.3885 22.6115 56.1534 22.6115H50.3519C50.1168 22.6115 49.9138 22.5265 49.7428 22.3567C49.5719 22.1868 49.4864 21.9851 49.4864 21.7516V13.0255L47.3709 16.465C47.029 16.9958 46.6337 17.2611 46.185 17.2611H43.9413C43.4925 17.2611 43.0972 16.9958 42.7553 16.465L40.6398 13.0255V21.7516C40.6398 21.9851 40.5543 22.1868 40.3834 22.3567C40.2124 22.5265 40.0094 22.6115 39.7744 22.6115H33.9728C33.7377 22.6115 33.5347 22.5265 33.3638 22.3567C33.1928 22.1868 33.1073 21.9851 33.1073 21.7516V1.17834C33.1073 0.944799 33.1928 0.7431 33.3638 0.573249C33.5347 0.403397 33.7377 0.318471 33.9728 0.318471H39.0371C39.6355 0.318471 40.0949 0.605095 40.4154 1.17834L45.0631 8.82166L49.7108 1.17834C50.0313 0.605095 50.4908 0.318471 51.0891 0.318471Z" fill="white"/>
<path d="M68.5893 22.6115H62.0504C61.8154 22.6115 61.6124 22.5265 61.4414 22.3567C61.2705 22.1868 61.185 21.9851 61.185 21.7516V1.17834C61.185 0.944799 61.2705 0.7431 61.4414 0.573249C61.6124 0.403397 61.8154 0.318471 62.0504 0.318471H68.5893C68.8243 0.318471 69.0273 0.403397 69.1983 0.573249C69.3692 0.7431 69.4547 0.944799 69.4547 1.17834V21.7516C69.4547 21.9851 69.3692 22.1868 69.1983 22.3567C69.0273 22.5265 68.8243 22.6115 68.5893 22.6115Z" fill="white"/>
<path d="M81.7533 16.0828H90.6319C90.867 16.0828 91.07 16.1677 91.241 16.3376C91.4119 16.5074 91.4974 16.7091 91.4974 16.9427V21.7516C91.4974 21.9851 91.4119 22.1868 91.241 22.3567C91.07 22.5265 90.867 22.6115 90.6319 22.6115H74.4772C74.2422 22.6115 74.0392 22.5265 73.8682 22.3567C73.6973 22.1868 73.6118 21.9851 73.6118 21.7516V1.17834C73.6118 0.944799 73.6973 0.7431 73.8682 0.573249C74.0392 0.403397 74.2422 0.318471 74.4772 0.318471H80.8878C81.1229 0.318471 81.3259 0.403397 81.4968 0.573249C81.6678 0.7431 81.7533 0.944799 81.7533 1.17834V16.0828Z" fill="white"/>
<path d="M101.8 22.6115H95.2616C95.0265 22.6115 94.8235 22.5265 94.6526 22.3567C94.4816 22.1868 94.3962 21.9851 94.3962 21.7516V1.17834C94.3962 0.944799 94.4816 0.7431 94.6526 0.573249C94.8235 0.403397 95.0265 0.318471 95.2616 0.318471H101.8C102.035 0.318471 102.238 0.403397 102.409 0.573249C102.58 0.7431 102.666 0.944799 102.666 1.17834V21.7516C102.666 21.9851 102.58 22.1868 102.409 22.3567C102.238 22.5265 102.035 22.6115 101.8 22.6115Z" fill="white"/>
<path d="M120.349 0.318471H126.151C126.386 0.318471 126.589 0.403397 126.76 0.573249C126.931 0.7431 127.016 0.944799 127.016 1.17834V21.7516C127.016 21.9851 126.931 22.1868 126.76 22.3567C126.589 22.5265 126.386 22.6115 126.151 22.6115H121.087C120.531 22.6115 120.093 22.3673 119.772 21.879L114.355 13.758V21.7516C114.355 21.9851 114.27 22.1868 114.099 22.3567C113.928 22.5265 113.725 22.6115 113.49 22.6115H107.688C107.453 22.6115 107.25 22.5265 107.079 22.3567C106.908 22.1868 106.823 21.9851 106.823 21.7516V1.17834C106.823 0.944799 106.908 0.7431 107.079 0.573249C107.25 0.403397 107.453 0.318471 107.688 0.318471H112.753C113.351 0.318471 113.789 0.562632 114.067 1.05096L119.484 9.87261V1.17834C119.484 0.944799 119.569 0.7431 119.74 0.573249C119.911 0.403397 120.114 0.318471 120.349 0.318471Z" fill="white"/>
<path d="M142.683 9.17197H151.497C151.732 9.17197 151.935 9.2569 152.106 9.42675C152.277 9.5966 152.363 9.7983 152.363 10.0318V14.172C152.363 16.9745 151.358 19.1401 149.35 20.6688C147.341 22.1762 144.659 22.9299 141.304 22.9299C137.971 22.9299 135.343 22.1975 133.419 20.7325C131.496 19.2463 130.535 17.0276 130.535 14.0764V8.72611C130.535 5.90234 131.518 3.74735 133.484 2.26115C135.449 0.753715 138.067 0 141.337 0C144.627 0 147.288 0.690021 149.318 2.07006C151.348 3.42887 152.363 5.10616 152.363 7.10191C152.363 7.29299 152.288 7.46285 152.138 7.61147C152.01 7.73885 151.85 7.80255 151.658 7.80255H144.574C144.147 7.80255 143.837 7.68577 143.644 7.45223C143.217 6.90021 142.896 6.58174 142.683 6.49681C142.191 6.30573 141.743 6.21019 141.337 6.21019C139.691 6.21019 138.868 7.00637 138.868 8.59873V14.0127C138.868 15.8174 139.745 16.7197 141.497 16.7197C143.292 16.7197 144.189 15.9554 144.189 14.4268H142.683C142.448 14.4268 142.245 14.3418 142.074 14.172C141.903 14.0021 141.817 13.8004 141.817 13.5669V10.0318C141.817 9.7983 141.903 9.5966 142.074 9.42675C142.245 9.2569 142.448 9.17197 142.683 9.17197Z" fill="white"/>
<path d="M8.93475 27.3885H15.8903C16.6595 27.3885 17.1403 27.7389 17.3326 28.4395L24.4805 48.758C24.5018 48.8217 24.5125 48.9278 24.5125 49.0764C24.5125 49.2038 24.4377 49.3418 24.2881 49.4904C24.1599 49.6178 23.9997 49.6815 23.8073 49.6815H17.8775C17.2365 49.6815 16.8198 49.4161 16.6275 48.8853L15.8582 46.7834H8.96681L8.19754 48.8853C8.00522 49.4161 7.58853 49.6815 6.94747 49.6815H1.01767C0.825348 49.6815 0.654399 49.6178 0.504818 49.4904C0.376606 49.3418 0.3125 49.2038 0.3125 49.0764C0.3125 48.9278 0.323184 48.8217 0.344553 48.758L7.49237 28.4395C7.68469 27.7389 8.16548 27.3885 8.93475 27.3885ZM10.6015 40.5732H14.2235L12.3965 34.6497L10.6015 40.5732Z" fill="white"/>
<path d="M48.9098 48.6306C48.9739 48.7367 49.006 48.8747 49.006 49.0446C49.006 49.1932 48.9312 49.3418 48.7816 49.4904C48.6534 49.6178 48.4932 49.6815 48.3008 49.6815H41.0889C40.512 49.6815 40.0739 49.4374 39.7747 48.949L36.9861 44.6815L34.3257 48.949C34.0266 49.4374 33.5885 49.6815 33.0116 49.6815H26.024C25.8317 49.6815 25.6607 49.6178 25.5112 49.4904C25.3829 49.3418 25.3188 49.1932 25.3188 49.0446C25.3188 48.8747 25.3509 48.7367 25.415 48.6306L32.1461 38.2803L26.0881 28.4395C26.024 28.3121 25.992 28.1741 25.992 28.0255C25.992 27.8769 26.0561 27.7389 26.1843 27.6115C26.3339 27.4628 26.5048 27.3885 26.6971 27.3885H33.6526C34.2509 27.3885 34.6997 27.6539 34.9988 28.1847L37.2426 32.0701L39.6786 28.1847C39.9777 27.6539 40.4265 27.3885 41.0248 27.3885H47.6598C47.8521 27.3885 48.0124 27.4628 48.1406 27.6115C48.2902 27.7389 48.3649 27.8875 48.3649 28.0573C48.3649 28.2059 48.3329 28.3333 48.2688 28.4395L42.0826 38.1847L48.9098 48.6306Z" fill="white"/>
<path d="M53.679 29.4267C55.6449 27.8556 58.2412 27.0701 61.4679 27.0701C64.6945 27.0701 67.2801 27.8662 69.2247 29.4586C71.1906 31.0297 72.1736 33.2484 72.1736 36.1146V41.0828C72.1736 43.9915 71.2013 46.2102 69.2567 47.7389C67.3336 49.2463 64.7373 50 61.4679 50C58.1984 50 55.5915 49.2463 53.6469 47.7389C51.7237 46.2102 50.7622 43.9915 50.7622 41.0828V36.1146C50.7622 33.2272 51.7344 30.9979 53.679 29.4267ZM59.737 43.1529C60.1644 43.5775 60.7413 43.7898 61.4679 43.7898C62.1944 43.7898 62.7713 43.5775 63.1987 43.1529C63.6261 42.7282 63.8398 42.0807 63.8398 41.2102V35.8599C63.8398 35.0106 63.6261 34.3737 63.1987 33.949C62.7713 33.5032 62.1944 33.2803 61.4679 33.2803C60.7413 33.2803 60.1644 33.5032 59.737 33.949C59.3096 34.3737 59.0959 35.0106 59.0959 35.8599V41.2102C59.0959 42.0807 59.3096 42.7282 59.737 43.1529Z" fill="white"/>
<path d="M83.8348 43.1529H92.7135C92.9486 43.1529 93.1516 43.2378 93.3225 43.4076C93.4935 43.5775 93.5789 43.7792 93.5789 44.0127V48.8217C93.5789 49.0552 93.4935 49.2569 93.3225 49.4267C93.1516 49.5966 92.9486 49.6815 92.7135 49.6815H76.5588C76.3237 49.6815 76.1207 49.5966 75.9498 49.4267C75.7788 49.2569 75.6934 49.0552 75.6934 48.8217V28.2484C75.6934 28.0149 75.7788 27.8132 75.9498 27.6433C76.1207 27.4735 76.3237 27.3885 76.5588 27.3885H82.9694C83.2045 27.3885 83.4075 27.4735 83.5784 27.6433C83.7494 27.8132 83.8348 28.0149 83.8348 28.2484V43.1529Z" fill="white"/>
<path d="M98.7535 29.4267C100.719 27.8556 103.316 27.0701 106.542 27.0701C109.769 27.0701 112.355 27.8662 114.299 29.4586C116.265 31.0297 117.248 33.2484 117.248 36.1146V41.0828C117.248 43.9915 116.276 46.2102 114.331 47.7389C112.408 49.2463 109.812 50 106.542 50C103.273 50 100.666 49.2463 98.7214 47.7389C96.7983 46.2102 95.8367 43.9915 95.8367 41.0828V36.1146C95.8367 33.2272 96.809 30.9979 98.7535 29.4267ZM104.812 43.1529C105.239 43.5775 105.816 43.7898 106.542 43.7898C107.269 43.7898 107.846 43.5775 108.273 43.1529C108.701 42.7282 108.914 42.0807 108.914 41.2102V35.8599C108.914 35.0106 108.701 34.3737 108.273 33.949C107.846 33.5032 107.269 33.2803 106.542 33.2803C105.816 33.2803 105.239 33.5032 104.812 33.949C104.384 34.3737 104.17 35.0106 104.17 35.8599V41.2102C104.17 42.0807 104.384 42.7282 104.812 43.1529Z" fill="white"/>
<path d="M120.511 27.3885H139.295C139.53 27.3885 139.733 27.4735 139.904 27.6433C140.074 27.8132 140.16 28.0149 140.16 28.2484V33.3758C140.16 33.6093 140.074 33.811 139.904 33.9809C139.733 34.1507 139.53 34.2357 139.295 34.2357H133.974V48.8217C133.974 49.0552 133.888 49.2569 133.717 49.4267C133.546 49.5966 133.343 49.6815 133.108 49.6815H126.698C126.463 49.6815 126.26 49.5966 126.089 49.4267C125.918 49.2569 125.832 49.0552 125.832 48.8217V34.2357H120.511C120.276 34.2357 120.073 34.1507 119.902 33.9809C119.732 33.811 119.646 33.6093 119.646 33.3758V28.2484C119.646 28.0149 119.732 27.8132 119.902 27.6433C120.073 27.4735 120.276 27.3885 120.511 27.3885Z" fill="white"/>
<path d="M151.353 43.1529H160.231C160.466 43.1529 160.669 43.2378 160.84 43.4076C161.011 43.5775 161.097 43.7792 161.097 44.0127V48.8217C161.097 49.0552 161.011 49.2569 160.84 49.4267C160.669 49.5966 160.466 49.6815 160.231 49.6815H144.077C143.842 49.6815 143.639 49.5966 143.468 49.4267C143.297 49.2569 143.211 49.0552 143.211 48.8217V28.2484C143.211 28.0149 143.297 27.8132 143.468 27.6433C143.639 27.4735 143.842 27.3885 144.077 27.3885H150.487C150.722 27.3885 150.925 27.4735 151.096 27.6433C151.267 27.8132 151.353 28.0149 151.353 28.2484V43.1529Z" fill="white"/>
</svg>

<svg xmlns="http://www.w3.org/2000/svg" width="162" height="50" fill="none"><path fill="#fff" d="M9.43 7.325q0-3.249 2.692-5.287Q14.846 0 19.238 0q4.423 0 7.212 2.134 2.82 2.133 2.82 4.458a.7.7 0 0 1-.224.51.62.62 0 0 1-.449.191h-6.41q-.738 0-1.346-.541-.609-.542-1.635-.542-1.539 0-1.539.892 0 .477.737.796.77.318 2.821.573 4.777.606 6.795 2.23 2.052 1.592 2.052 4.872 0 3.249-3.013 5.319-2.98 2.038-7.821 2.038t-7.597-1.975-2.756-4.808q0-.287.192-.478a.7.7 0 0 1 .513-.223h6.09q.673 0 1.474.637.834.636 2.276.637 2.404 0 2.404-.892 0-.573-.865-.86-.866-.319-3.27-.637-8.27-1.083-8.27-7.006M51.09.318h5.063q.354 0 .61.255.255.255.256.605v20.574a.82.82 0 0 1-.256.605.84.84 0 0 1-.61.255h-5.801a.84.84 0 0 1-.61-.255.82.82 0 0 1-.256-.605v-8.726l-2.115 3.439q-.513.796-1.186.796h-2.244q-.673 0-1.186-.796l-2.115-3.44v8.727a.82.82 0 0 1-.257.605.84.84 0 0 1-.609.255h-5.801a.84.84 0 0 1-.61-.255.82.82 0 0 1-.256-.605V1.178q0-.35.257-.605a.83.83 0 0 1 .609-.255h5.064q.898 0 1.378.86l4.648 7.644 4.648-7.644q.48-.86 1.378-.86M68.59 22.612h-6.54a.84.84 0 0 1-.609-.255.82.82 0 0 1-.256-.605V1.178q0-.35.256-.605a.84.84 0 0 1 .61-.255h6.538q.352 0 .61.255.256.255.256.605v20.574a.82.82 0 0 1-.257.605.84.84 0 0 1-.609.255M81.753 16.083h8.879q.352 0 .609.255.255.255.256.605v4.809a.82.82 0 0 1-.256.605.84.84 0 0 1-.61.255H74.478a.84.84 0 0 1-.609-.255.82.82 0 0 1-.256-.605V1.178q0-.35.256-.605a.84.84 0 0 1 .61-.255h6.41q.352 0 .609.255.256.255.256.605zM101.8 22.612h-6.538a.84.84 0 0 1-.61-.255.82.82 0 0 1-.256-.605V1.178q0-.35.257-.605a.83.83 0 0 1 .609-.255h6.538q.353 0 .609.255.257.255.257.605v20.574a.83.83 0 0 1-.257.605.84.84 0 0 1-.609.255M120.349.318h5.802q.353 0 .609.255t.256.605v20.574a.82.82 0 0 1-.256.605.84.84 0 0 1-.609.255h-5.064q-.834 0-1.315-.733l-5.417-8.121v7.994a.82.82 0 0 1-.256.605.84.84 0 0 1-.609.255h-5.802a.84.84 0 0 1-.609-.255.82.82 0 0 1-.256-.605V1.178q0-.35.256-.605a.84.84 0 0 1 .609-.255h5.065q.897 0 1.314.733l5.417 8.822V1.178q0-.35.256-.605a.84.84 0 0 1 .609-.255M142.683 9.172h8.814q.352 0 .609.255t.257.605v4.14q0 4.203-3.013 6.497-3.013 2.26-8.046 2.26-5 0-7.885-2.196-2.884-2.23-2.884-6.657v-5.35q0-4.236 2.949-6.465Q136.432.001 141.337 0q4.935 0 7.981 2.07 3.045 2.038 3.045 5.032 0 .286-.225.51a.65.65 0 0 1-.48.19h-7.084q-.64 0-.93-.35-.641-.828-.961-.955-.738-.287-1.346-.287-2.469 0-2.469 2.389v5.414q0 2.707 2.629 2.707 2.692 0 2.692-2.293h-1.506a.84.84 0 0 1-.609-.255.83.83 0 0 1-.257-.605v-3.535q0-.35.257-.605a.84.84 0 0 1 .609-.255M8.935 27.389h6.955q1.154 0 1.443 1.05l7.148 20.319q.03.096.031.318 0 .192-.224.414a.65.65 0 0 1-.48.191h-5.93q-.962 0-1.25-.796l-.77-2.102H8.967l-.77 2.102q-.287.797-1.25.797h-5.93a.77.77 0 0 1-.512-.192q-.192-.222-.192-.414 0-.222.032-.318l7.147-20.319q.289-1.05 1.443-1.05M10.6 40.573h3.622l-1.827-5.923zM48.91 48.63a.8.8 0 0 1 .096.415q0 .223-.224.445a.65.65 0 0 1-.481.191h-7.212q-.865 0-1.314-.732l-2.789-4.267-2.66 4.267q-.45.733-1.314.733h-6.988a.77.77 0 0 1-.513-.192q-.192-.222-.192-.445 0-.255.096-.414l6.731-10.35-6.058-9.841a.9.9 0 0 1-.096-.415q0-.222.192-.413a.7.7 0 0 1 .513-.223h6.956q.897 0 1.346.796l2.244 3.885 2.436-3.885q.448-.796 1.346-.796h6.635q.288 0 .48.223.225.191.225.445a.73.73 0 0 1-.096.383l-6.186 9.745zM53.679 29.427q2.949-2.357 7.789-2.357t7.757 2.389q2.949 2.356 2.949 6.656v4.968q0 4.363-2.917 6.656-2.885 2.26-7.79 2.261-4.903 0-7.82-2.261-2.885-2.293-2.885-6.656v-4.968q0-4.332 2.917-6.688m6.058 13.726q.64.637 1.73.637t1.732-.637.64-1.943v-5.35q0-1.274-.64-1.911-.642-.669-1.731-.669-1.09 0-1.731.669-.64.638-.641 1.91v5.351q0 1.305.641 1.943M83.835 43.153h8.879q.353 0 .609.255.255.255.256.605v4.809a.82.82 0 0 1-.256.605.83.83 0 0 1-.61.255H76.56a.83.83 0 0 1-.61-.255.82.82 0 0 1-.256-.605V28.248q0-.35.257-.605a.84.84 0 0 1 .609-.255h6.41q.354 0 .61.255.255.255.256.605zM98.754 29.427q2.948-2.357 7.788-2.357t7.757 2.389q2.949 2.356 2.949 6.656v4.968q0 4.363-2.917 6.656-2.884 2.26-7.789 2.261-4.904 0-7.82-2.261-2.886-2.293-2.885-6.656v-4.968q0-4.332 2.916-6.688m6.058 13.726q.64.637 1.73.637t1.731-.637q.642-.637.641-1.943v-5.35q0-1.274-.641-1.911-.64-.669-1.731-.669-1.09 0-1.73.669-.642.638-.642 1.91v5.351q0 1.305.642 1.943M120.511 27.389h18.784q.353 0 .609.254.256.255.256.605v5.128a.83.83 0 0 1-.256.605.84.84 0 0 1-.609.255h-5.321v14.586a.82.82 0 0 1-.257.605.84.84 0 0 1-.609.255h-6.41a.84.84 0 0 1-.609-.255.82.82 0 0 1-.257-.605V34.236h-5.321a.84.84 0 0 1-.609-.255.83.83 0 0 1-.256-.605v-5.128q0-.35.256-.605a.84.84 0 0 1 .609-.255M151.353 43.153h8.878q.352 0 .609.255t.257.605v4.809a.82.82 0 0 1-.257.605.84.84 0 0 1-.609.255h-16.154a.84.84 0 0 1-.609-.255.82.82 0 0 1-.257-.605V28.248q0-.35.257-.605a.84.84 0 0 1 .609-.255h6.41q.353 0 .609.255.257.255.257.605z"/></svg>
